X:4091
T:Mazurka d'Espalien
O:england
S:Pauvert, Repertoire
M:3/4
L:1/8
K:C
cd|e2 eg cd|e2 eg fe|dB de fd|e2 c2 cd|\
e2 eg cd|e2 eg fe|dB df dB|c4::
K:G
Bc|d2 dg ag|f2 e2 AB|cB cd ef|e2 d2 Bc|\
d2 dg ag|f2 e2 AB|1 cB cd  BA|G4:|2 cB cd ef|g4||
K:C
|:eg|ce Gc eg|f2 d2 df|Bd GB df|e2 c2 eg|\
ce Gc eg|f2 dg ^fg|BA Gf dB|c4:|


